static/img/logo.svg

<svg width="100" height="100" viewBox="0 0 100 100" fill="none" xmlns="http://www.w3.org/2000/svg">
  <path d="M50 5L10 15V45C10 75 50 95 50 95C50 95 90 75 90 45V15L50 5Z" fill="#15A3A6"/>
  <path fill-rule="evenodd" clip-rule="evenodd" d="M35 45C35 36.7157 41.7157 30 50 30C55.4614 30 60.2411 32.9187 62.8643 37.2814L71.4406 32.1357C67.0685 24.8645 59.1023 20 50 20C36.1929 20 25 31.1929 25 45C25 58.8071 36.1929 70 50 70C59.1023 70 67.0685 65.1355 71.4405 57.8643L62.8643 52.7186C60.2411 57.0813 55.4614 60 50 60C41.7157 60 35 53.2843 35 45Z" fill="white"/>
</svg>

<svg width="100" height="100" fill="none" xmlns="http://www.w3.org/2000/svg">
  <path d="M50 5L10 15v30c0 30 40 50 40 50s40-20 40-50V15L50 5z" fill="#15A3A6"/>
  <path fill-rule="evenodd" clip-rule="evenodd" d="M35 45c0-8.284 6.716-15 15-15 5.461 0 10.241 2.919 12.864 7.281l8.577-5.145C67.068 24.864 59.102 20 50 20c-13.807 0-25 11.193-25 25s11.193 25 25 25c9.102 0 17.069-4.865 21.44-12.136l-8.576-5.145C60.241 57.08 55.461 60 50 60c-8.284 0-15-6.716-15-15z" fill="#fff"/>
</svg>
